X: 1
T:Loudon's Bonny Woods and Braes
M:C
L:1/8
Q:80
C:
S:Strathspey
K:HP
|: A/2|
{Gdc}d2{gdc}d2{g}f/2a3/2{g}a2|
{f}g3/2e/2{gfg}f3/2d/2{gef}e3/2d/2{gcd}c/2{e}A3/2|  !
{Gdc}d2{gdc}d2{g}f/2a3/2{g}a2|
((3Bcd){gcd}c/2{e}A3/2{Gdc}d2{gdc}d3/2:| |:
A/2|  !
{Gdc}d3/2e/2{gfg}f3/2d/2{gef}e3/2d/2{gcd}c/2{e}A3/2|
{g}B3/2c/2{Gdc}d3/2c/2{g}B3/2{d}c/2{g}A3/2B/2|
{Gdc}d3/2e/2{gfg}f3/2d/2{gef}e3/2d/2{gcd}c/2{e}A3/2|  !
{g}((3Bcd){gcd}c/2{e}A3/2{Gdc}d2{gdc}d3/2:|
